X: 305763
M: 6/8
L: 1/8
K: G
d2d e2d | B2B d2B | A2A AGA | A3 G2 B/c/ |\
d2d e2d | B2B d2B | A2A AGA | G3 G2 H|]
g |\
fef def | g3 d2e | c2d B2c | A^ce D2 g |\
fef def | g3 ged | ^c2c cBc | dfd "^D.C."d2 |]
d3 g3 | fef B2B | c2A F2B | GFG D2 B |\
e3 g3 | fef B2B | c2A F2B | E3- "^D.C."E2 |]


